!!!!SEGMENT: pl-sa--530-a-ix-10--001_anonim--instrumental-piece.krn
!!!cenid: 17xx:2015
!!!COM: Anonim
!!!COM-rismid: pe30004985
!!!CDT:
!!!CNT:
!!!OTL: [Instrumental piece]
!!!PDT:
!!!AGN: Secular
!!!SMS-siglum: PL-SA
!!!SMS-shelfmark: 530/A IX 10
!!!SMS-shelfwork: 001 W
!!!SMS-variant:
!!!SMS-altvar:
!!!NIFC-rismid: 1001092502
!!!URL-scan: http://bc.bdsandomierz.pl/dlibra/publication/1422/edition/1390/content
!!!ONB-nifc: UWAGA: 1mum
!!!AIN: 1 cbass 2 violn
!!!key: G
**kern	**kern	**kern
*group1	*group1	*group1
*part3	*part2	*part1
*staff3	*staff2	*staff1
*I"Baſso	*I"Violino 2do	*I"Violino Primo
*I'[Cb]	*I'[Vl 2]	*I'[Vl 1]
*Icbass	*Ivioln	*Ivioln
*ICstr	*ICstr	*ICstr
*clefF4	*clefG2	*clefG2
*k[f#]	*k[f#]	*k[f#]
*G:	*G:	*G:
*M3/4	*M3/4	*M3/4
=1	=1	=1
!LO:TX:t=P:problem=all\right&colon; global	!LO:TX:t=P:problem=all\right&colon; global	!LO:TX:t=P:problem=all\right&colon; global
!!mixed beam:problem
!LO:TX:t=P:problem=mixed beam	!LO:TX:a:B:t=Vivace	!LO:TX:a:B:t=Vivace
!LO:TX:a:B:t=Vivace	!	!
8G\L	16g/LL	16g/LL
.	16f#/	16f#/
8GG/J	16g/	16g/
.	16a/JJ	16a/JJ
8G\L	8g/L	8g/L
8B\J	8b/J	8b/J
16G\LL	16g/LL	16g/LL
16F#\	16f#/	16f#/
16E\	16e/	16e/
16D\JJ	16d/JJ	16d/JJ
=2	=2	=2
!!mixed beam:problem
!LO:TX:t=P:problem=mixed beam	!	!
8G\L	16g/LL	16g/LL
.	16f#/	16f#/
8GG/	16g/	16g/
.	16a/JJ	16a/JJ
8G\	8g/L	8g/L
8B\J	8b/J	8b/J
16G\LL	16g/LL	16g/LL
16F#\	16f#/	16f#/
16E\	16e/	16e/
16D\JJ	16d/JJ	16d/JJ
=3	=3	=3
4G\	8g/L	8g/L
.	16g/L	16b/L
.	16f#/JJ	16a/JJ
4GG/	8g/L	8g\L
.	8f#/	8a\
4G\	8g/	8b\
.	8a/J	8cc\J
=4	=4	=4
4G\	8g\L	8b\L
.	8b\	8dd\
4D\	8a\	8cc\
.	8cc\J	8ee\J
4G\	4b\	4dd\
=5	=5	=5
4G\	8b\L	8dd\L
.	16g\L	16b\L
.	16a\JJ	16cc\JJ
4G\	(>8b\L	8dd\L
.	(>8b\)	8gg\
4G\	8a\	8ff#\
.	8b\J)	8gg\J
=6	=6	=6
4G\	8cc\L	8ee\L
.	8a\J	8cc\J
4D\	(>4a/	4cc\
4G\	4g/)	4b\
=7	=7	=7
!	!LO:TX:a:t=|:problem	!
4G\	16g\LL	16b\LL
.	(>16b\	16dd\
.	16a\	16cc\
.	16b\JJ)	16dd\JJ
4G\	8b\L	16dd\LL
.	.	16gg\
.	8b\J	16ff#\
.	.	16gg\JJ
4G\	16dd\LL	16bb\LL
.	16b\	16gg\
.	16a\	16ff#\
.	16b\JJ	16gg\JJ
=8	=8	=8
4G\	8cc\L	8ee\L
.	16a\L	16cc\L
.	16cc\JJ	16ee\JJ
4D\	8b\L	8dd\L
.	8a\	8cc\
4G\	8a\	8cc\
.	8g\J	8b\J
!	!LO:LB:g=original	!LO:LB:g=original
=9	=9	=9
*2\right	*	*
!!mixed beam:problem
!	!LO:TX:t=P:problem=mixed beam	!LO:TX:t=P:problem=mixed beam
2.G\	8g\L	8b\L
.	8b\	8dd\
.	8a\	8cc\
.	8a\	8a\
.	8f#/	8f#/
.	8d/J	8d/J
=10	=10	=10
2.G\	4.B/	4.g/
.	16d/LL	16b/LL
.	16c/JJ	16a/JJ
!	!	!LO:TX:a:i:t=bis
.	8B/L	8g/L
!	!LO:TX:a:i:t=bis	!
.	8d/J	8a/J
=11	=11	=11
!!mixed beam:problem
!	!	!LO:TX:t=P:problem=mixed beam
2.G\	8g/L	8b\L
.	8b/	8dd\
.	8a/	8cc\
.	8c/	8a\
.	8A/	8f#/
.	8d/J	8d/J
=12	=12	=12
2.G\	16B/LL	16g/LL
.	16A/	16f#/
.	16B/	16g/
.	16c/JJ	16a/JJ
.	8B/L	8g/L
.	8d/J	8b/J
.	4B/	4g/
!LO:LB:g=original	!	!
=13	=13	=13
!!mixed beam:problem
!	!LO:TX:t=P:problem=takty 13-16 zapisane znakiem repetycji	!LO:TX:t=P:problem=mixed beam
!	!LO:TX:t=P:problem=mixed beam	!LO:TX:t=P:problem=takty 13-16 zapisane znakiem repetycji
2.G\	8g\Lyy	8b\Lyy
.	8b\yy	8dd\yy
.	8a\yy	8cc\yy
.	8a\yy	8a\yy
.	8f#\yy	8f#\yy
.	8d\Jyy	8d\Jyy
=14	=14	=14
2.G\	4.B/yy	4.g/yy
.	16d/LLyy	16b/LLyy
.	16c/JJyy	16a/JJyy
.	8B/Lyy	8g/Lyy
.	8d/Jyy	8a/Jyy
=15	=15	=15
!!mixed beam:problem
!	!	!LO:TX:t=P:problem=mixed beam
2.G\	8g/Lyy	8b\Lyy
.	8b/yy	8dd\yy
.	8a/yy	8cc\yy
.	8c/yy	8a\yy
.	8A/yy	8f#\yy
.	8d/Jyy	8d\Jyy
=16	=16	=16
2.G\	16B/LLyy	16g/LLyy
.	16A/yy	16f#/yy
.	16B/yy	16g/yy
.	16c/JJyy	16a/JJyy
.	8B/Lyy	8g/Lyy
.	8d/Jyy	8b/Jyy
.	4B/yy	4g/yy
=17	=17	=17
4D\	8f#/L	8a\L
.	16g/L	16b\L
.	16f#/JJ	16a\JJ
4D\	8g/L	8b\L
.	8f#/	8a\
4A\	8g/	8b\
.	8e/J	8cc#X\J
=18	=18	=18
*k[f#c#]	*k[f#c#]	*k[f#c#]
*D:	*D:	*D:
*M2/4	*M2/4	*M2/4
!	!LO:TX:a:B:t=allo	!LO:TX:a:B:t=allo
4d\	4dd\	4dd\
4A\	4cc#\	4ee\
=19	=19	=19
4D\	4dd\	4ff#\
4A\	4ee\	4gg\
=20	=20	=20
4D\	8a/L	8ff#\L
.	16g/L	16ee\L
.	16f#/JJ	16dd\JJ
4A\	8e/L	8cc#\L
.	16d/L	16b\L
.	16e/JJ	16cc#\JJ
=21	=21	=21
4D\	4f#/	4dd\
4d\	4a/	4d/
!	!LO:LB:g=original	!
=22	=22	=22
4d\	4dd\	4dd\
4A\	4cc#\	4ee\
=23	=23	=23
4D\	4dd\	4ff#\
4A\	4ee\	4gg\
!	!	!LO:LB:g=original
=24	=24	=24
.	.	16qqgg/
4D\	8a/L	8ff#\L
.	16g/L	16ee\L
.	16f#/JJ	16dd\JJ
4A\	8e/L	8cc#\L
.	16d/L	16b\L
.	16e/JJ	16cc#\JJ
=25	=25	=25
4D\	8f#/L	8dd\L
.	8a/J	8ff#\J
4d\	4f#/	4d/
=26	=26	=26
2AA/	8cc#\L	8ee\L
.	8dd\J	8ff#\J
.	8ee\L	8gg\L
.	16ff#\L	16aa\L
.	16ee\JJ	16gg\JJ
=27	=27	=27
2D\	4dd\	4ff#\
.	4a\	4dd\
=28	=28	=28
2AA/	8cc#\L	8ee\L
.	8dd\J	8ff#\J
.	8ee\L	8gg\L
.	16ff#\L	16aa\L
.	16ee\JJ	16gg\JJ
=29	=29	=29
2D\	4dd\	4ff#\
.	4ff#\	4aa\
!LO:LB:g=original	!	!
=30	=30	=30
2AA/	8cc#\L	8ee\L
.	8dd\J	8ff#\J
.	8ee\L	8gg\L
.	16ff#\L	16aa\L
.	16ee\JJ	16gg\JJ
=31	=31	=31
!!mixed beam:problem
!	!LO:TX:t=P:problem=mixed beam	!
8D\L	8dd\L	8ff#\L
8d\J	8d/J	8dd\J
4D\	4dd\	4d/
=32	=32	=32
*	*^	*
2AA/	2a/	2e\	16cc#\LL
.	.	.	16aa\
.	.	.	16gg#X\
.	.	.	16aa\JJ
.	.	.	16bb\LL
.	.	.	16aa\
.	.	.	16gg#\
.	.	.	16aa\JJ
=33	=33	=33	=33
2D\	2a/	2f#\	16ff#\LL
.	.	.	16aa\
.	.	.	16gg\
.	.	.	16aa\JJ
.	.	.	16bb\LL
.	.	.	16aa\
.	.	.	16gg\
.	.	.	16aa\JJ
=34	=34	=34	=34
2AA/	2a/	2e\	16ee\LL
.	.	.	16aa\
.	.	.	16gg\
.	.	.	16aa\JJ
.	.	.	16bb\LL
.	.	.	16aa\
.	.	.	16gg\
.	.	.	16aa\JJ
*	*v	*v	*
!	!	!LO:LB:g=original
=35	=35	=35
4D\	8dd\L	8ff#\L
.	8ff#\J	8aa\J
4d\	4ff#\	4dd\
!	!LO:LB:g=original	!
=36	=36	=36
4d\	8f#/L	8ff#\L
.	8a/	16ee\L
.	.	16dd\JJ
4r	8e/	8cc#\L
.	8e/J	16b\L
.	.	16a\JJ
=37	=37	=37
4d\	8f#/L	8dd\L
.	8a/	8a\
4r	8f#/	8dd\
.	8a/J	8ee\J
=38	=38	=38
4d\	8d/L	8ff#\L
.	8a/	16ee\L
.	.	16dd\JJ
4r	8e/	8cc#\L
.	8e/J	16b\L
.	.	16a\JJ
=39	=39	=39
4D\	8a\L	8dd\L
.	8dd\	8ff#\
4D\	8a\	8dd\
.	8ff#\J	8aa\J
=40	=40	=40
4D\	8a\L	8dd\L
.	8dd\	8ff#\
4D\	8a\	8dd\
.	8ff#\J	8aa\J
=41	=41	=41
!!mixed beam:problem
!	!LO:TX:t=P:problem=mixed beam	!
8D\L	8d/L	8d/L
8D\	8dd\	8d/ 8a/ 8ff#/
8D\	8dd\	8d/ 8a/ 8ff#/
8D\J	8dd\J	8d/J 8a/ 8ff#/
=42	=42	=42
4D/	4d/ 4a/ 4ff#/	4d/ 4a/ 4ff#/
4r	4r	4r
==;;	==;;	==;;
*-	*-	*-
!!!system-decoration: [(g1)]
!!!RDF**kern: > = above
!!!RDF**kern: < = below
!!!ENC: Mateusz Solarz
!!!END: 2021-05-28
!!!EED: Jędrzej Mróz
!!!EEV: 2022-01-11
